img/licao01/p11_10.svg

<svg xmlns="http://www.w3.org/2000/svg" xmlns:xlink="http://www.w3.org/1999/xlink" preserveAspectRatio="none" width="133" height="106" viewBox="0 0 133 106"><defs><filter id="c" x="-20%" y="-20%" width="140%" height="140%" color-interpolation-filters="sRGB"><feFlood flood-color="#000" flood-opacity="1" result="result1"/><feComposite in2="SourceGraphic" in="result1" operator="in" result="result2"/><feGaussianBlur in="result2" stdDeviation="2.3333333333333335,2.3333333333333335" result="result3"/><feOffset in="result3" result="result4"/><feComposite in2="result4" in="SourceGraphic" result="result5"/></filter><path fill="#9C0" d="M492.1 530.3q-2.9 2.9-2.9 7v81.6q.1 3.95 2.9 6.75 2.9 2.95 7 2.95h108.65q4.1 0 7-2.95 2.85-2.8 2.95-6.75v-81.6q0-4.1-2.95-7-2.9-2.95-7-2.95H499.1q-4.1 0-7 2.95z" id="a"/><path fill="#FFF" d="M966.45 100.5Q947.95 82 921.8 82H458.15Q432 82 413.5 100.5T395 145.15V538.8q0 26.15 18.5 44.65t44.65 18.5H921.8q26.15 0 44.65-18.5t18.5-44.65V145.15q0-26.15-18.5-44.65z" id="d"/><path fill="#CCC" d="M105.6 41.6v-2L51.85 27.85 8.35 49v2.45l17.55 4.6q10.45 2.6 20.85 5.25l18.9 4.9 39.95-24.6z" id="e"/><g id="f"><path fill="#FFF" d="M65.05 61.35l2.9-1.75-2.9-.75-2.7 1.65-6.1-1.45 8.8 2.3M105 34.85v-.05L51.25 23.05l-43.4 21.1 57.2 14.7 39.95-24z"/><path fill="#E9E9E9" d="M7.8 44.2v2.45l17.5 4.6q10.45 2.6 20.85 5.25l8.05 2q1 .25 2.05.55l6.1 1.45 2.7-1.65-57.2-14.7-.05.05z"/><path fill="#BFBFBF" d="M105 36.8v-1.95l-39.95 24 2.9.75L105 36.8z"/></g><g id="g"><path fill="#BBB1AF" d="M64.2 59.8q-.096.096-.25.1h.25v-.1z"/><path fill="#EDEAD9" d="M97.4 36.05q-.15-.65-2.1-1.1l-40.35-8.4q-1-.2-1.8-.15-1.85 0-3.1.7L17.1 41.05q-1 .55-1.05 1.05v.05q0 .55 1.35 1.05l43.1 12.2q2.3.7 3.15.3.9-.4 1.25-.6l31.65-18.05q.65-.4.8-.8.05-.15.05-.2M82.65 34.8l5.6 1.5-3.6.35-2-1.85m2.6 2.8l4.35-.3-3.8 2.05-.55-1.75m-2.95 2.9l-.55-.05-14.45-.8v-.15q0-.25-.1-.55l14.55-1.15.2-.05q.45.9.45 1.9 0 .4-.1.85M52.05 28.35l.3 1.25-3.95.5 3.65-1.75m2.55 1.5l-.25-1.55 4.15 1.35-3.9.2m-1.95 1.2q.15 0 .3.05L55 36.15q-1 .05-1.9.25h-.3l-7.25-4.35q3.3-.7 7.1-1m4.7 5h-1.1l-1.8-5.1 2.8-.1q2.75-.05 5.25.1l-3.6 5.1h-1.55M44.4 32.3q.1 0 .25-.05v.2l7.15 4.2q-.75.2-1.5.45-.15.05-.35.15l-5.25-1.3-6.45-1.7 1.4-.6q2.25-.85 4.75-1.35m3.05 7.35v.25l-14.1.7h-.85q-.05-.25-.05-.55 0-1 .55-1.9h.35l14.3.8q-.2.3-.2.7m1.2 1.95l.25-.05q.55.3 1.4.6.1 0 .15.1l-1.7.9-7.65 3.65q-.7-.2-1.45-.45-2.1-.8-3.6-1.6l12.6-3.15m-.95-1.15q.15.3.55.6l-13.3 3q-1.5-1.05-2.1-2.25l14.85-1.35m1.25-2.7q-.55.3-.9.65L33.8 37q1.2-1.2 3.35-2.25.2-.15.4-.2v.3l11.4 2.9m.75 10.7q-.45-.05-.9-.05-3.45-.45-6.45-1.25l9.1-4.6q.05-.05.1 0 1.05.3 2.3.4l-.85 1.1-3.3 4.4m8.05-5.3h.2l1.6 5.7q-.6-.05-1.2 0-.55-.05-1.1 0-1.9 0-3.7-.05-1.15-.1-2.25-.15l3.6-5.55.15-.3v.35H57.75m1.55 1.1l-.4-1.1q1.3-.15 2.45-.3l.35.15 7.25 4.7q-2.15.45-4.55.75-1.65.2-3.35.3l-1.75-4.5m18-10.05l-5.7 1.45-6.55 1.6q-.25-.15-.65-.25-.75-.3-1.6-.45l8.8-4.15.15-.05q1.7.4 3.25.95 1.25.4 2.3.9m-13.75 1.25l-1.9.85q-.65-.1-1.45-.15l3.35-4.7v-.35h.3q3.65.25 6.85.95l-7.15 3.4m3.15 5.3q.25-.2.4-.45l14.75 1.2Q81 43 78.9 44.3l-12.1-2.8-.85-.15q.45-.3.75-.6m-1.9 1.15v.15l12 3.25q-.85.35-1.8.75-2.05.7-4.3 1.3l-3.5-2.2-3.3-2.1-.95-.55q.75-.2 1.45-.45.1 0 .15-.05.1-.05.25-.1m2.15-3.35q-.35-.55-1.15-.95l12.75-2.75q1.9 1 2.85 2.2l-14.45 1.5m-42.4 3.5l4.4-.05 1 2-5.4-1.95m4.2-1.35l-3.75.15 4.45-2.05-.7 1.9m34.3 11.2l-.55-1.8 5.2-.95-4.65 2.75m-3.4-1.75L60 52.2l-5.7-2.05h5.35z"/><path fill="#9D8D8E" d="M60 52.2l-.35-2.05H54.3L60 52.2m2.5-2.1l.55 1.8 4.65-2.75-5.2.95M25 40.85l3.75-.15.7-1.9L25 40.85M28.95 42l-4.4.05 5.4 1.95-1-2m36.85-4.4q.8.4 1.15.95l14.45-1.5q-.95-1.2-2.85-2.2L65.8 37.6m-1 4.45v.9l2.4 2.2 3.5 2.2q2.25-.6 4.3-1.3.95-.4 1.8-.75l-12-3.25m1.9-1.3l.1.75 12.1 2.8q2.1-1.3 2.95-2.8L67.1 40.3q-.15.25-.4.45m-5.05-4.45l1.9-.85v-4l-3.35 4.7q.8.05 1.45.15m9.95-.65V32.4l-8.8 4.15q.85.15 1.6.45.4.1.65.25l6.55-1.6m-9.8 9.15l2.6 3.65q2.4-.3 4.55-.75L61.7 43l.1 1.1v.7m-6.75-1.65q-.05-.1-.15-.05l-3.6 5.55q1.1.05 2.25.15l1.65-4-.05-.5-.1-1.15m2.9 0h-.2v1.5l.6 4.2q.6-.05 1.2 0l-1.6-5.7m-15.6 4q3 .8 6.45 1.25l2.65-4.6.1-.05v-1.2q-.05-.05-.1 0l-9.1 4.6m5.7-8.75q.35-.35.9-.65l-11.4-2.9-.4-.1Q35 35.8 33.8 37l14.25 1.4m.2 2.65q-.4-.3-.55-.6L32.85 41.8q.6 1.2 2.1 2.25l13.3-3m.5 2.1l-.1-1.55-12.6 3.15q1.5.8 3.6 1.6.75.25 1.45.45l7.65-3.65m-1.3-3.25v-.25q0-.4.2-.7l-14.3-.8v2.45l14.1-.7m-2.8-7.45l.05 3.5 5.25 1.3q.2-.1.35-.15.75-.25 1.5-.45l-7.15-4.2m8.3-1.35q-.15-.05-.3-.05l.45 5.35q.9-.2 1.9-.25l-2.05-5.05m1.4-2.8l.25 1.55 3.9-.2-4.15-1.35m-2 1.3l-.3-1.25-3.65 1.75 3.95-.5m29.4 10.85V37.8L67.2 38.95q.1.3.1.55v.15l14.45.8m7.85-3.15l-4.35.3.55 1.75 3.8-2.05m-1.35-1l-5.6-1.5 2 1.85 3.6-.35z"/><path fill="#CDC3C1" d="M64.8 42.95l-.15-.15-.75.25 3.3 2.1-2.4-2.2m-3.75 5.8q1.7-.1 3.35-.3l-2.6-3.65v-.7l-2.5.15 1.75 4.5M55.2 44.8l-1.65 4q1.8.05 3.7.05.55-.05 1.1 0l-.6-4.2v-.3l-2.6-.05.05.5m-6.4 3.6q.45 0 .9.05l3.3-4.4-1.45-.25h-.1l-2.65 4.6z"/><path fill="#C3BBB8" d="M64.8 42.05l-.25-.05q-.05.05-.15.05-.7.25-1.45.45l.95.55.75-.25h.15v-.75m2-.55l-.1-.75q-.3.3-.75.6l.85.15m-7.9 1.65l.4 1.1 2.5-.15-.1-1.1-.35-.15q-1.15.15-2.45.3m-1.15 0H55.05l.1 1.15 2.6.05v-1.2m-3.9-.2q-1.25-.1-2.3-.4v1.25l1.45.25.85-1.1m-4.95-1.4l-.25.05.1 1.55 1.7-.9q-.05-.1-.15-.1-.85-.3-1.4-.6z"/><path fill="#CCC" d="M63.55 35.45l7.15-3.4q-3.2-.7-6.85-.95l-.3.35v4m8.05-3.05v3.25l5.7-1.45q-1.05-.5-2.3-.9-1.55-.55-3.25-.95l-.15.05m-39.1 8.2h.85v-2.45H33q-.55.9-.55 1.9 0 .3.05.55m12.2-4.65l-.05-3.5v-.2q-.15.05-.25.05-2.5.5-4.75 1.35l-1.4.6 6.45 1.7m11.55.1H58.9l3.6-5.1q-2.5-.15-5.25-.1l-2.8.1 1.8 5.1m-3.15.35l-.45-5.35q-3.8.3-7.1 1l7.25 4.35h.3z"/><path fill="#F3EFEE" d="M51.55 43.75l-.1.05h.1v-.05z"/></g><path id="b" stroke="#8CA8B8" stroke-linejoin="round" stroke-linecap="round" fill="none" d="M607.75 527.35q4.1 0 7 2.95 2.95 2.9 2.95 7v81.6q-.1 3.95-2.95 6.75-2.9 2.95-7 2.95H499.1q-4.1 0-7-2.95-2.8-2.8-2.9-6.75v-81.6q0-4.1 2.9-7 2.9-2.95 7-2.95h108.6"/><path id="h" stroke="#BFBFBF" stroke-opacity=".478" stroke-width="3.5" stroke-linejoin="round" stroke-linecap="round" fill="none" d="M16.05 42.1v.05q0 .55 1.35 1.05l43.1 12.2q2.3.7 3.15.3.9-.4 1.25-.6l31.65-18.05q.65-.4.8-.8.05-.15.05-.2-.15-.65-2.1-1.1l-40.35-8.4q-1-.2-1.8-.15-1.85 0-3.1.7L17.1 41.05q-1 .55-1.05 1.05z"/></defs><g transform="translate(-486.95 -524.95)"><use xlink:href="#a"/><use xlink:href="#b"/></g><g filter="url(#c)"><use xlink:href="#d" transform="matrix(.19302 0 0 .1714 -67.45 -5.65)"/><use xlink:href="#e" transform="translate(8.8 8.4)"/><use xlink:href="#f" transform="translate(8.8 8.4)"/><g transform="translate(8.8 8.4)"><use xlink:href="#g"/><use xlink:href="#h"/></g></g></svg>

<svg xmlns="http://www.w3.org/2000/svg" version="1.1" xmlns:xlink="http://www.w3.org/1999/xlink" preserveAspectRatio="none" x="0px" y="0px" width="133px" height="106px" viewBox="0 0 133 106">
<defs>
<filter id="Filter_1" x="-20%" y="-20%" width="140%" height="140%" color-interpolation-filters="sRGB">
<feFlood flood-color="#000000" flood-opacity="1" in="SourceGraphic" result="result1"/>

<feComposite in2="SourceGraphic" in="result1" operator="in" result="result2"/>

<feGaussianBlur in="result2" stdDeviation="2.3333333333333335,2.3333333333333335" result="result3"/>

<feOffset dx="0" dy="0" in="result3" result="result4"/>

<feComposite in2="result4" in="SourceGraphic" operator="over" result="result5"/>
</filter>

<g id="Layer0_0_MEMBER_0_FILL">
<path fill="#99CC00" stroke="none" d="
M 492.1 530.3
Q 489.2 533.2 489.2 537.3
L 489.2 618.9
Q 489.3 622.85 492.1 625.65 495 628.6 499.1 628.6
L 607.75 628.6
Q 611.85 628.6 614.75 625.65 617.6 622.85 617.7 618.9
L 617.7 537.3
Q 617.7 533.2 614.75 530.3 611.85 527.35 607.75 527.35
L 607.7 527.35 499.1 527.35
Q 495 527.35 492.1 530.3 Z"/>
</g>

<g id="S_mbolo_5_0_Layer0_0_MEMBER_0_MEMBER_0_MEMBER_0_FILL">
<path fill="#FFFFFF" stroke="none" d="
M 966.45 100.5
Q 947.95 82 921.8 82
L 458.15 82
Q 432 82 413.5 100.5 395 119 395 145.15
L 395 538.8
Q 395 564.95 413.5 583.45 432 601.95 458.15 601.95
L 921.8 601.95
Q 947.95 601.95 966.45 583.45 984.95 564.95 984.95 538.8
L 984.95 145.15
Q 984.95 119 966.45 100.5 Z"/>
</g>

<g id="S_mbolo_5_0_Layer0_0_MEMBER_1_FILL">
<path fill="#CCCCCC" stroke="none" d="
M 105.6 41.6
L 105.6 39.6 51.85 27.85 8.35 49 8.35 51.45 25.9 56.05
Q 36.35 58.65 46.75 61.3
L 65.65 66.2 105.6 41.6 Z"/>
</g>

<g id="S_mbolo_5_0_Layer0_0_MEMBER_2_FILL">
<path fill="#FFFFFF" stroke="none" d="
M 65.05 61.35
L 67.95 59.6 65.05 58.85 62.35 60.5 56.25 59.05 65.05 61.35
M 105 34.85
L 105 34.8 51.25 23.05 7.85 44.15 65.05 58.85 105 34.85 Z"/>

<path fill="#E9E9E9" stroke="none" d="
M 7.8 44.2
L 7.8 46.65 25.3 51.25
Q 35.75 53.85 46.15 56.5
L 54.2 58.5
Q 55.2 58.75 56.25 59.05
L 62.35 60.5 65.05 58.85 7.85 44.15 7.8 44.2 Z"/>

<path fill="#BFBFBF" stroke="none" d="
M 105 36.8
L 105 34.85 65.05 58.85 67.95 59.6 105 36.8 Z"/>
</g>

<g id="S_mbolo_5_0_Layer0_0_MEMBER_2_MEMBER_0_FILL">
<path fill="#BBB1AF" stroke="none" d="
M 64.2 59.8
Q 64.10390625 59.89609375 63.95 59.9
L 64.2 59.9 64.2 59.8 Z"/>

<path fill="#EDEAD9" stroke="none" d="
M 97.4 36.05
Q 97.25 35.4 95.3 34.95
L 54.95 26.55
Q 53.95 26.35 53.15 26.4 51.3 26.4 50.05 27.1
L 17.1 41.05
Q 16.1 41.6 16.05 42.1
L 16.05 42.15
Q 16.05 42.7 17.4 43.2
L 60.5 55.4
Q 62.8 56.1 63.65 55.7 64.55 55.3 64.9 55.1
L 96.55 37.05
Q 97.2 36.65 97.35 36.25 97.4 36.1 97.4 36.05
M 82.65 34.8
L 88.25 36.3 84.65 36.65 82.65 34.8
M 85.25 37.6
L 89.6 37.3 85.8 39.35 85.25 37.6
M 82.3 40.5
L 81.75 40.45 67.3 39.65
Q 67.3 39.55 67.3 39.5 67.3 39.25 67.2 38.95
L 81.75 37.8 81.95 37.75
Q 82.4 38.65 82.4 39.65 82.4 40.05 82.3 40.5
M 52.05 28.35
L 52.35 29.6 48.4 30.1 52.05 28.35
M 54.6 29.85
L 54.35 28.3 58.5 29.65 54.6 29.85
M 52.65 31.05
Q 52.8 31.05 52.95 31.1
L 55 36.15
Q 54 36.2 53.1 36.4 52.95 36.4 52.8 36.4
L 45.55 32.05
Q 48.85 31.35 52.65 31.05
M 57.35 36.05
Q 56.8 36.05 56.25 36.05
L 54.45 30.95
Q 55.85 30.9 57.25 30.85 60 30.8 62.5 30.95
L 58.9 36.05
Q 58.2 36.05 57.35 36.05
M 44.4 32.3
Q 44.5 32.3 44.65 32.25
L 44.65 32.45 51.8 36.65
Q 51.05 36.85 50.3 37.1 50.15 37.15 49.95 37.25
L 44.7 35.95 38.25 34.25
Q 38.95 33.95 39.65 33.65 41.9 32.8 44.4 32.3
M 47.45 39.65
Q 47.45 39.8 47.45 39.9
L 33.35 40.6 32.5 40.6
Q 32.45 40.35 32.45 40.05 32.45 39.05 33 38.15
L 33.35 38.15 47.65 38.95
Q 47.45 39.25 47.45 39.65
M 48.65 41.6
L 48.9 41.55
Q 49.45 41.85 50.3 42.15 50.4 42.15 50.45 42.25
L 48.75 43.15 41.1 46.8
Q 40.4 46.6 39.65 46.35 37.55 45.55 36.05 44.75
L 48.65 41.6
M 47.7 40.45
Q 47.85 40.75 48.25 41.05
L 34.95 44.05
Q 33.45 43 32.85 41.8
L 47.7 40.45
M 48.95 37.75
Q 48.4 38.05 48.05 38.4
L 33.8 37
Q 35 35.8 37.15 34.75 37.35 34.6 37.55 34.55
L 37.55 34.85 48.95 37.75
M 49.7 48.45
Q 49.25 48.4 48.8 48.4 45.35 47.95 42.35 47.15
L 51.45 42.55
Q 51.5 42.5 51.55 42.55 52.6 42.85 53.85 42.95
L 53 44.05 49.7 48.45
M 57.75 43.15
Q 57.85 43.15 57.95 43.15
L 59.55 48.85
Q 58.95 48.8 58.35 48.85 57.8 48.8 57.25 48.85 55.35 48.85 53.55 48.8 52.4 48.7 51.3 48.65
L 54.9 43.1 55.05 42.8 55.05 43.15
Q 56.15 43.15 57.35 43.15 57.55 43.15 57.75 43.15
M 59.3 44.25
L 58.9 43.15
Q 60.2 43 61.35 42.85
L 61.7 43 68.95 47.7
Q 66.8 48.15 64.4 48.45 62.75 48.65 61.05 48.75
L 59.3 44.25
M 77.3 34.2
L 71.6 35.65 65.05 37.25
Q 64.8 37.1 64.4 37 63.65 36.7 62.8 36.55
L 71.6 32.4 71.75 32.35
Q 73.45 32.75 75 33.3 76.25 33.7 77.3 34.2
M 63.55 35.45
L 61.65 36.3
Q 61 36.2 60.2 36.15
L 63.55 31.45 63.55 31.1
Q 63.7 31.1 63.85 31.1 67.5 31.35 70.7 32.05
L 63.55 35.45
M 66.7 40.75
Q 66.95 40.55 67.1 40.3
L 81.85 41.5
Q 81 43 78.9 44.3
L 66.8 41.5 65.95 41.35
Q 66.4 41.05 66.7 40.75
M 64.8 41.9
L 64.8 42.05 76.8 45.3
Q 75.95 45.65 75 46.05 72.95 46.75 70.7 47.35
L 67.2 45.15 63.9 43.05 62.95 42.5
Q 63.7 42.3 64.4 42.05 64.5 42.05 64.55 42 64.65 41.95 64.8 41.9
M 66.95 38.55
Q 66.6 38 65.8 37.6
L 78.55 34.85
Q 80.45 35.85 81.4 37.05
L 66.95 38.55
M 24.55 42.05
L 28.95 42 29.95 44 24.55 42.05
M 28.75 40.7
L 25 40.85 29.45 38.8 28.75 40.7
M 63.05 51.9
L 62.5 50.1 67.7 49.15 63.05 51.9
M 59.65 50.15
L 60 52.2 54.3 50.15 59.65 50.15 Z"/>

<path fill="#9D8D8E" stroke="none" d="
M 60 52.2
L 59.65 50.15 54.3 50.15 60 52.2
M 62.5 50.1
L 63.05 51.9 67.7 49.15 62.5 50.1
M 25 40.85
L 28.75 40.7 29.45 38.8 25 40.85
M 28.95 42
L 24.55 42.05 29.95 44 28.95 42
M 65.8 37.6
Q 66.6 38 66.95 38.55
L 81.4 37.05
Q 80.45 35.85 78.55 34.85
L 65.8 37.6
M 64.8 42.05
L 64.8 42.8 64.8 42.95 67.2 45.15 70.7 47.35
Q 72.95 46.75 75 46.05 75.95 45.65 76.8 45.3
L 64.8 42.05
M 66.7 40.75
L 66.8 41.5 78.9 44.3
Q 81 43 81.85 41.5
L 67.1 40.3
Q 66.95 40.55 66.7 40.75
M 61.65 36.3
L 63.55 35.45 63.55 31.45 60.2 36.15
Q 61 36.2 61.65 36.3
M 71.6 35.65
L 71.6 32.4 62.8 36.55
Q 63.65 36.7 64.4 37 64.8 37.1 65.05 37.25
L 71.6 35.65
M 61.8 44.8
L 64.4 48.45
Q 66.8 48.15 68.95 47.7
L 61.7 43 61.8 44.1 61.8 44.8
M 55.05 43.15
Q 55 43.05 54.9 43.1
L 51.3 48.65
Q 52.4 48.7 53.55 48.8
L 55.2 44.8 55.15 44.3 55.05 43.15
M 57.95 43.15
Q 57.85 43.15 57.75 43.15
L 57.75 44.35 57.75 44.65 58.35 48.85
Q 58.95 48.8 59.55 48.85
L 57.95 43.15
M 42.35 47.15
Q 45.35 47.95 48.8 48.4
L 51.45 43.8 51.55 43.75 51.55 42.55
Q 51.5 42.5 51.45 42.55
L 42.35 47.15
M 48.05 38.4
Q 48.4 38.05 48.95 37.75
L 37.55 34.85 37.15 34.75
Q 35 35.8 33.8 37
L 48.05 38.4
M 48.25 41.05
Q 47.85 40.75 47.7 40.45
L 32.85 41.8
Q 33.45 43 34.95 44.05
L 48.25 41.05
M 48.75 43.15
L 48.65 41.6 36.05 44.75
Q 37.55 45.55 39.65 46.35 40.4 46.6 41.1 46.8
L 48.75 43.15
M 47.45 39.9
Q 47.45 39.8 47.45 39.65 47.45 39.25 47.65 38.95
L 33.35 38.15 33.35 40.6 47.45 39.9
M 44.65 32.45
L 44.7 35.95 49.95 37.25
Q 50.15 37.15 50.3 37.1 51.05 36.85 51.8 36.65
L 44.65 32.45
M 52.95 31.1
Q 52.8 31.05 52.65 31.05
L 53.1 36.4
Q 54 36.2 55 36.15
L 52.95 31.1
M 54.35 28.3
L 54.6 29.85 58.5 29.65 54.35 28.3
M 52.35 29.6
L 52.05 28.35 48.4 30.1 52.35 29.6
M 81.75 40.45
L 81.75 37.8 67.2 38.95
Q 67.3 39.25 67.3 39.5 67.3 39.55 67.3 39.65
L 81.75 40.45
M 89.6 37.3
L 85.25 37.6 85.8 39.35 89.6 37.3
M 88.25 36.3
L 82.65 34.8 84.65 36.65 88.25 36.3 Z"/>

<path fill="#CDC3C1" stroke="none" d="
M 64.8 42.95
L 64.65 42.8 63.9 43.05 67.2 45.15 64.8 42.95
M 61.05 48.75
Q 62.75 48.65 64.4 48.45
L 61.8 44.8 61.8 44.1 59.3 44.25 61.05 48.75
M 55.2 44.8
L 53.55 48.8
Q 55.35 48.85 57.25 48.85 57.8 48.8 58.35 48.85
L 57.75 44.65 57.75 44.35 55.15 44.3 55.2 44.8
M 48.8 48.4
Q 49.25 48.4 49.7 48.45
L 53 44.05 51.55 43.8 51.45 43.8 48.8 48.4 Z"/>

<path fill="#C3BBB8" stroke="none" d="
M 64.8 42.05
L 64.55 42
Q 64.5 42.05 64.4 42.05 63.7 42.3 62.95 42.5
L 63.9 43.05 64.65 42.8 64.8 42.8 64.8 42.05
M 66.8 41.5
L 66.7 40.75
Q 66.4 41.05 65.95 41.35
L 66.8 41.5
M 58.9 43.15
L 59.3 44.25 61.8 44.1 61.7 43 61.35 42.85
Q 60.2 43 58.9 43.15
M 57.75 43.15
Q 57.55 43.15 57.35 43.15 56.15 43.15 55.05 43.15
L 55.15 44.3 57.75 44.35 57.75 43.15
M 53.85 42.95
Q 52.6 42.85 51.55 42.55
L 51.55 43.75 51.55 43.8 53 44.05 53.85 42.95
M 48.9 41.55
L 48.65 41.6 48.75 43.15 50.45 42.25
Q 50.4 42.15 50.3 42.15 49.45 41.85 48.9 41.55 Z"/>

<path fill="#CCCCCC" stroke="none" d="
M 63.55 35.45
L 70.7 32.05
Q 67.5 31.35 63.85 31.1
L 63.55 31.45 63.55 35.45
M 71.6 32.4
L 71.6 35.65 77.3 34.2
Q 76.25 33.7 75 33.3 73.45 32.75 71.75 32.35
L 71.6 32.4
M 32.5 40.6
L 33.35 40.6 33.35 38.15 33 38.15
Q 32.45 39.05 32.45 40.05 32.45 40.35 32.5 40.6
M 44.7 35.95
L 44.65 32.45 44.65 32.25
Q 44.5 32.3 44.4 32.3 41.9 32.8 39.65 33.65 38.95 33.95 38.25 34.25
L 44.7 35.95
M 56.25 36.05
Q 56.8 36.05 57.35 36.05 58.2 36.05 58.9 36.05
L 62.5 30.95
Q 60 30.8 57.25 30.85 55.85 30.9 54.45 30.95
L 56.25 36.05
M 53.1 36.4
L 52.65 31.05
Q 48.85 31.35 45.55 32.05
L 52.8 36.4
Q 52.95 36.4 53.1 36.4 Z"/>

<path fill="#F3EFEE" stroke="none" d="
M 51.55 43.75
L 51.45 43.8 51.55 43.8 51.55 43.75 Z"/>
</g>

<path id="Layer0_0_MEMBER_0_1_STROKES" stroke="#8CA8B8" stroke-width="1" stroke-linejoin="round" stroke-linecap="round" fill="none" d="
M 607.75 527.35
Q 611.85 527.35 614.75 530.3 617.7 533.2 617.7 537.3
L 617.7 618.9
Q 617.6 622.85 614.75 625.65 611.85 628.6 607.75 628.6
L 499.1 628.6
Q 495 628.6 492.1 625.65 489.3 622.85 489.2 618.9
L 489.2 537.3
Q 489.2 533.2 492.1 530.3 495 527.35 499.1 527.35
L 607.7 527.35"/>

<path id="S_mbolo_5_0_Layer0_0_MEMBER_2_MEMBER_0_1_STROKES" stroke="#BFBFBF" stroke-opacity="0.47843137254901963" stroke-width="3.5" stroke-linejoin="round" stroke-linecap="round" fill="none" d="
M 16.05 42.1
L 16.05 42.15
Q 16.05 42.7 17.4 43.2
L 60.5 55.4
Q 62.8 56.1 63.65 55.7 64.55 55.3 64.9 55.1
L 96.55 37.05
Q 97.2 36.65 97.35 36.25 97.4 36.1 97.4 36.05 97.25 35.4 95.3 34.95
L 54.95 26.55
Q 53.95 26.35 53.15 26.4 51.3 26.4 50.05 27.1
L 17.1 41.05
Q 16.1 41.6 16.05 42.1 Z"/>
</defs>

<g transform="matrix( 1, 0, 0, 1, -486.95,-524.95) ">
<use xlink:href="#Layer0_0_MEMBER_0_FILL"/>

<use xlink:href="#Layer0_0_MEMBER_0_1_STROKES"/>
</g>

<g filter="url(#Filter_1)" transform="matrix( 1, 0, 0, 1, 0,0) ">
<g transform="matrix( 1, 0, 0, 1, 8.8,8.4) ">
<g transform="matrix( 0.193023681640625, 0, 0, 0.1714019775390625, -76.25,-14.05) ">
<use xlink:href="#S_mbolo_5_0_Layer0_0_MEMBER_0_MEMBER_0_MEMBER_0_FILL"/>
</g>

<g transform="matrix( 1, 0, 0, 1, 0,0) ">
<use xlink:href="#S_mbolo_5_0_Layer0_0_MEMBER_1_FILL"/>
</g>

<g transform="matrix( 1, 0, 0, 1, 0,0) ">
<use xlink:href="#S_mbolo_5_0_Layer0_0_MEMBER_2_FILL"/>
</g>

<g transform="matrix( 1, 0, 0, 1, 0,0) ">
<use xlink:href="#S_mbolo_5_0_Layer0_0_MEMBER_2_MEMBER_0_FILL"/>

<use xlink:href="#S_mbolo_5_0_Layer0_0_MEMBER_2_MEMBER_0_1_STROKES"/>
</g>
</g>
</g>
</svg>
